X:17647
T:Tongs by the Fire, The
R:jig
Z:id:hn-jig-361
M:6/8
L:1/8
K:G
GBd cAF|Gge dBG|cec BdB|ABG FED|
GBd cAF|Gge dBG|cec Bag|1 fef g3:|2 fef g2d||
|:gdB gdB|gfa gdB|gfg eag|fd^c def|
gbg faf|ege def|gdB AGA|1 BGF G2d:|2 BGF G3||
